packages/gestalt-icons-android/vr-theme/ic_vr_flame_gestalt.svg

<svg width="24" height="24" viewBox="0 0 24 24" fill="none" xmlns="http://www.w3.org/2000/svg">
<path fill-rule="evenodd" clip-rule="evenodd" d="M4.08579 6.58576L4.05356 6.61799L4.02283 6.65165C2.54476 8.27096 1 10.7331 1 13.5C1 19.302 6.02076 24 12 24C17.9792 24 23 19.302 23 13.5C23 12.5113 22.8108 11.3255 22.5354 10.2705C22.2726 9.26394 21.8565 8.08263 21.2512 7.26095C20.9688 6.87767 20.5305 6.50385 19.9232 6.34276C19.3149 6.18138 18.7464 6.28947 18.3116 6.49484C18.0974 6.59602 17.9089 6.72156 17.7443 6.86276C16.3717 3.46331 13.1241 0.572452 8.4187 0.0746192C6.46198 -0.132404 5.17853 1.51048 5.16079 3.0493C5.14174 4.70269 4.78538 5.88616 4.08579 6.58576ZM15.5531 21.2988C15.8386 20.6106 16 19.8288 16 19C16 16.2386 14.2091 14 12 14C9.79086 14 8 16.2386 8 19C8 19.8288 8.16135 20.6106 8.44692 21.2988C5.24348 19.9763 3 16.9355 3 13.5C3 11.45 4.17481 9.45179 5.5 7.99997C6.75465 6.74532 7.1395 4.90807 7.16066 3.07235C7.16734 2.49245 7.63155 2.0025 8.20827 2.06352C13.0382 2.57453 15.8738 6.02472 16.3892 9.44532C16.5705 10.6488 16.4646 11.8486 16.0573 12.9154C17.0342 12.2266 17.7713 11.2082 18.2834 10.1232C18.3096 10.0677 18.3352 10.012 18.3602 9.95627C18.389 9.89203 18.417 9.82761 18.4443 9.76306C18.5291 9.56202 18.6065 9.35972 18.6764 9.15777C18.7198 9.03254 18.7603 8.90745 18.798 8.78288C18.9346 8.33131 19.3611 8.06736 19.641 8.44719C19.7813 8.63762 19.9168 8.88064 20.0445 9.15997C20.1489 9.38819 20.2479 9.64065 20.3399 9.90848C20.3709 9.99866 20.4011 10.0906 20.4305 10.1839C20.7744 11.2783 21 12.5657 21 13.5C21 16.9355 18.7565 19.9763 15.5531 21.2988ZM14 19C14 21.0964 12.7112 22 12 22C11.2888 22 10 21.0964 10 19C10 16.9036 11.2888 16 12 16C12.7112 16 14 16.9036 14 19Z" fill="black"/>
</svg>

<svg xmlns="http://www.w3.org/2000/svg" width="24" height="24"><path d="m4.09 6.59-.04.03-.03.03C2.54 8.27 1 10.73 1 13.5 1 19.3 6.02 24 12 24s11-4.7 11-10.5c0-.99-.19-2.17-.46-3.23-.27-1-.68-2.19-1.29-3a2.35 2.35 0 0 0-3.5-.4A11.1 11.1 0 0 0 8.41.06C6.45-.14 5.17 1.5 5.15 3.04Q5.14 5.53 4.1 6.59m11.46 14.7A6 6 0 0 0 16 19c0-2.76-1.8-5-4-5s-4 2.24-4 5a6 6 0 0 0 .45 2.3A8.6 8.6 0 0 1 3 13.5C3 11.45 4.17 9.45 5.5 8c1.25-1.25 1.64-3.1 1.66-4.93 0-.58.47-1.07 1.05-1 4.83.5 7.66 3.95 8.18 7.38.18 1.2.07 2.4-.33 3.47a7 7 0 0 0 2.38-3.16 10 10 0 0 0 .36-.98c.13-.45.56-.71.84-.33q.22.29.4.71a8 8 0 0 1 .39 1.02c.34 1.1.57 2.39.57 3.32a8.6 8.6 0 0 1-5.45 7.8M14 19c0 2.1-1.29 3-2 3s-2-.9-2-3 1.29-3 2-3 2 .9 2 3"/></svg>
